static/assets/template/assets/img/icons/essential/detailed/Shoe_2.svg

<svg height="87" viewBox="0 0 149 87" width="149" xmlns="http://www.w3.org/2000/svg"><g fill="none" fill-rule="evenodd" transform="translate(1 2)"><path d="m14.4 2.7c-7.3-.8-3.1-4.7-11.7 51.2-1.2 7.8-2 15.6-1.7 23.5 0 1.5.3 3.7 2 3.9 23.4 2.4 38.3 1.4 75.4 1.2 18.5-.1 37.2.1 55.4-3.4.1 0 4.5-.7 4.5-.7 3.7-.6 7.9-1.8 8-4.4.1-9.1-2.2-17.4-13.4-20.8-29-8.9-37.7 6.6-77-41.7-2.8-3.4-4.2-6.9-7.4-10-3.7-3.6-9.9 2.2-18.2 2.4-5 0-10.8-.7-15.9-1.2" fill-rule="nonzero"/><path d="m130.9 54.8c-6-1.9-12.4-3.1-18.8-3.4-.3 0-.6 0-.9-.1-21.9-1-35.6-14-53.6-36.2-2.6-3.2-4.1-6.7-7.1-9.6-2.4-2.4-6-.5-10.5.9-2.1.7-4.4 1.3-6.8 1.3-5.1.1-11.2-.6-16.4-1.2-2.6-.3-3.1-.1-3.6 2.4 0 0-4.6 35.3-6.4 46.5-.6 3.8-1.1 7.5-1.4 11.3 45 4 90.5 2.2 135-5.3-1.7-2.7-4.8-5.1-9.5-6.6z" fill-rule="nonzero"/><path d="m111.5 46c-.1 0-.3-.1-.4-.1.1-.1.3-.1.4-.1 0-.1 0-.3 0-.4l1 1c-.2-.2-.6-.3-1-.4z" fill-rule="nonzero"/><path d="m140.6 61.7c-7.9 2.9-16.1 4.7-24.4 5.4-1.1.1-2.4.1-3.3-.6-.8-.7-1-1.8-1.2-2.9-.5-4.1-.7-8.2-.6-12.3 6.6.3 13.3 1.6 19.7 3.5 4.8 1.5 7.9 3.9 9.8 6.9z" fill-rule="nonzero"/><g stroke-linecap="round" stroke-linejoin="round" stroke-width="3"><path d="m23.1 3.5c2.5.2 4.9.3 7.2.2 8.2-.2 14.4-6 18.2-2.4 3.1 3 4.7 6.7 7.4 10 18.9 23.3 33.3 37 56.3 38 6.9.3 14 1.6 20.7 3.7 11.2 3.4 13.5 11.7 13.4 20.8-.1 4-10 4.7-12.5 5.2-18.3 3.5-36.9 3.3-55.4 3.4-36.5.2-52.3 1.2-75.4-1.2-1.8-.2-2-2.4-2-3.9-.2-7.9.5-15.7 1.8-23.5 1.8-11.7 6.7-48.8 6.7-48.8.4-2.6 1-2.8 3.6-2.6m3.5.5h.1"/><path d="m54.5 9.8c-2.1 1.6-4.2 3.2-6.3 4.9"/><path d="m61.1 18.9c-1.9 2-4 3.9-6.1 5.6"/><path d="m67.9 26.3c-2.1 2.2-4.3 4.4-6.4 6.6"/><path d="m68.3 40.1c2-2.6 4.3-4.9 6.8-6.9"/><path d="m82.4 39c-1.5 2.8-3 5.6-4.6 8.5"/><path d="m88.8 43c-.5 3.2-1 6.4-1.4 9.6"/><path d="m99.1 47.3c-.3 2.7-.7 5.4-1.3 8.1"/><path d="m38 6.8c5 6 8.5 13.5 12.8 20.2 12.6 19.3 37.2 34.3 60.9 35.4"/><path d="m140.9 61.4c.8-.2 1.6-.4 2.4-.7"/><path d="m134.7 63h.2"/><path d="m69.9 68.2c14.2.1 28.5-.1 42.5-1.5 6.1-.6 12.2-1.5 18.2-2.8"/><path d="m21.7 67.6c12.5.2 24.9.3 37.4.5"/><path d="m6 67.4h2.2 2.8"/><path d="m112.4 66.7c-.1-.7-.2-1.5-.3-2.2s-.2-1.4-.3-2.1c-.6-4.3-1.1-8.7-.3-13"/><path d="m101.1 71.5c-.1-1.2-.3-2.5-.5-3.7"/><path d="m102.7 82.2c-.5-2-.8-3.8-1-5.7"/></g><circle cx="27.6" cy="27.8" fill-rule="nonzero" r="12.1"/><circle cx="28.8" cy="29" fill-rule="nonzero" r="11"/><path d="m20.4 18 .2-.2" stroke-linecap="round" stroke-linejoin="round" stroke-width="3"/><path d="m26.4 15.7c.4 0 .8-.1 1.2-.1 6.7 0 12.1 5.4 12.1 12.1s-5.4 12.1-12.1 12.1-12.1-5.4-12.1-12.1c0-2.2.6-4.2 1.6-6" stroke-linecap="round" stroke-linejoin="round" stroke-width="3"/><circle cx="27.6" cy="27.8" fill-rule="nonzero" r="5.1"/><circle cx="28.7" cy="28.9" fill-rule="nonzero" r="4"/><path d="m31.7 24.8c.6.8 1 1.9 1 3 0 2.8-2.3 5.1-5.1 5.1s-5.1-2.3-5.1-5.1c0-2.2 1.4-4.1 3.4-4.8" stroke-linecap="round" stroke-linejoin="round" stroke-width="3"/></g></svg>

<?xml version="1.0" encoding="UTF-8"?>
<svg width="149px" height="87px" viewBox="0 0 149 87" version="1.1" xmlns="http://www.w3.org/2000/svg" xmlns:xlink="http://www.w3.org/1999/xlink">
    <!-- Generator: Sketch 51.2 (57519) - http://www.bohemiancoding.com/sketch -->
    <title>Shoe_2</title>
    <desc>Created with Sketch.</desc>
    <defs></defs>
    <g id="Page-1" stroke="none" stroke-width="1" fill="none" fill-rule="evenodd">
        <g id="Shoe_2" transform="translate(1.000000, 2.000000)">
            <path d="M14.4,2.7 C7.1,1.9 11.3,-2 2.7,53.9 C1.5,61.7 0.7,69.5 1,77.4 C1,78.9 1.3,81.1 3,81.3 C26.4,83.7 41.3,82.7 78.4,82.5 C96.9,82.4 115.6,82.6 133.8,79.1 C133.9,79.1 138.3,78.4 138.3,78.4 C142,77.8 146.2,76.6 146.3,74 C146.4,64.9 144.1,56.6 132.9,53.2 C103.9,44.3 95.2,59.8 55.9,11.5 C53.1,8.1 51.7,4.6 48.5,1.5 C44.8,-2.1 38.6,3.7 30.3,3.9 C25.3,3.9 19.5,3.2 14.4,2.7" id="Shape" class="fill-neutral" fill-rule="nonzero"></path>
            <path d="M130.9,54.8 C124.9,52.9 118.5,51.7 112.1,51.4 C111.8,51.4 111.5,51.4 111.2,51.3 C89.3,50.3 75.6,37.3 57.6,15.1 C55,11.9 53.5,8.4 50.5,5.5 C48.1,3.1 44.5,5 40,6.4 C37.9,7.1 35.6,7.7 33.2,7.7 C28.1,7.8 22,7.1 16.8,6.5 C14.2,6.2 13.7,6.4 13.2,8.9 C13.2,8.9 8.6,44.2 6.8,55.4 C6.2,59.2 5.7,62.9 5.4,66.7 C50.4,70.7 95.9,68.9 140.4,61.4 C138.7,58.7 135.6,56.3 130.9,54.8 Z" id="Shape" class="fill-primary-100" fill-rule="nonzero"></path>
            <path d="M111.5,46 C111.4,46 111.2,45.9 111.1,45.9 C111.2,45.8 111.4,45.8 111.5,45.8 C111.5,45.7 111.5,45.5 111.5,45.4 L112.5,46.4 C112.3,46.2 111.9,46.1 111.5,46 Z" id="Shape" class="fill-neutral" fill-rule="nonzero"></path>
            <path d="M140.6,61.7 C132.7,64.6 124.5,66.4 116.2,67.1 C115.1,67.2 113.8,67.2 112.9,66.5 C112.1,65.8 111.9,64.7 111.7,63.6 C111.2,59.5 111,55.4 111.1,51.3 C117.7,51.6 124.4,52.9 130.8,54.8 C135.6,56.3 138.7,58.7 140.6,61.7 Z" id="Shape" class="fill-neutral" fill-rule="nonzero"></path>
            <path d="M23.1,3.5 C25.6,3.7 28,3.8 30.3,3.7 C38.5,3.5 44.7,-2.3 48.5,1.3 C51.6,4.3 53.2,8 55.9,11.3 C74.8,34.6 89.2,48.3 112.2,49.3 C119.1,49.6 126.2,50.9 132.9,53 C144.1,56.4 146.4,64.7 146.3,73.8 C146.2,77.8 136.3,78.5 133.8,79 C115.5,82.5 96.9,82.3 78.4,82.4 C41.9,82.6 26.1,83.6 3,81.2 C1.2,81 1,78.8 1,77.3 C0.8,69.4 1.5,61.6 2.8,53.8 C4.6,42.1 9.5,5 9.5,5 C9.9,2.4 10.5,2.2 13.1,2.4 M16.6,2.9 C16.6,2.9 16.7,2.9 16.7,2.9" id="Shape" class="stroke-primary" stroke-width="3" stroke-linecap="round" stroke-linejoin="round"></path>
            <path d="M54.5,9.8 C52.4,11.4 50.3,13 48.2,14.7" id="Shape" class="stroke-primary" stroke-width="3" stroke-linecap="round" stroke-linejoin="round"></path>
            <path d="M61.1,18.9 C59.2,20.9 57.1,22.8 55,24.5" id="Shape" class="stroke-primary" stroke-width="3" stroke-linecap="round" stroke-linejoin="round"></path>
            <path d="M67.9,26.3 C65.8,28.5 63.6,30.7 61.5,32.9" id="Shape" class="stroke-primary" stroke-width="3" stroke-linecap="round" stroke-linejoin="round"></path>
            <path d="M68.3,40.1 C70.3,37.5 72.6,35.2 75.1,33.2" id="Shape" class="stroke-primary" stroke-width="3" stroke-linecap="round" stroke-linejoin="round"></path>
            <path d="M82.4,39 C80.9,41.8 79.4,44.6 77.8,47.5" id="Shape" class="stroke-primary" stroke-width="3" stroke-linecap="round" stroke-linejoin="round"></path>
            <path d="M88.8,43 C88.3,46.2 87.8,49.4 87.4,52.6" id="Shape" class="stroke-primary" stroke-width="3" stroke-linecap="round" stroke-linejoin="round"></path>
            <path d="M99.1,47.3 C98.8,50 98.4,52.7 97.8,55.4" id="Shape" class="stroke-primary" stroke-width="3" stroke-linecap="round" stroke-linejoin="round"></path>
            <path d="M38,6.8 C43,12.8 46.5,20.3 50.8,27 C63.4,46.3 88,61.3 111.7,62.4" id="Shape" class="stroke-primary" stroke-width="3" stroke-linecap="round" stroke-linejoin="round"></path>
            <path d="M140.9,61.4 C141.7,61.2 142.5,61 143.3,60.7" id="Shape" class="stroke-primary" stroke-width="3" stroke-linecap="round" stroke-linejoin="round"></path>
            <path d="M134.7,63 C134.8,63 134.8,63 134.9,63" id="Shape" class="stroke-primary" stroke-width="3" stroke-linecap="round" stroke-linejoin="round"></path>
            <path d="M69.9,68.2 C84.1,68.3 98.4,68.1 112.4,66.7 C118.5,66.1 124.6,65.2 130.6,63.9" id="Shape" class="stroke-primary" stroke-width="3" stroke-linecap="round" stroke-linejoin="round"></path>
            <path d="M21.7,67.6 C34.2,67.8 46.6,67.9 59.1,68.1" id="Shape" class="stroke-primary" stroke-width="3" stroke-linecap="round" stroke-linejoin="round"></path>
            <path d="M6,67.4 C6.7,67.4 7.4,67.4 8.2,67.4 L11,67.4" id="Shape" class="stroke-primary" stroke-width="3" stroke-linecap="round" stroke-linejoin="round"></path>
            <path d="M112.4,66.7 C112.3,66 112.2,65.2 112.1,64.5 C112,63.8 111.9,63.1 111.8,62.4 C111.8,62.4 111.8,62.4 111.8,62.4 C111.2,58.1 110.7,53.7 111.5,49.4" id="Shape" class="stroke-primary" stroke-width="3" stroke-linecap="round" stroke-linejoin="round"></path>
            <path d="M101.1,71.5 C101,70.3 100.8,69 100.6,67.8" id="Shape" class="stroke-primary" stroke-width="3" stroke-linecap="round" stroke-linejoin="round"></path>
            <path d="M102.7,82.2 C102.2,80.2 101.9,78.4 101.7,76.5" id="Shape" class="stroke-primary" stroke-width="3" stroke-linecap="round" stroke-linejoin="round"></path>
            <circle id="Oval" class="fill-neutral" fill-rule="nonzero" cx="27.6" cy="27.8" r="12.1"></circle>
            <circle id="Oval" class="fill-primary-400" fill-rule="nonzero" cx="28.8" cy="29" r="11"></circle>
            <path d="M20.4,18 C20.5,17.9 20.5,17.9 20.6,17.8" id="Shape" class="stroke-primary" stroke-width="3" stroke-linecap="round" stroke-linejoin="round"></path>
            <path d="M26.4,15.7 C26.8,15.7 27.2,15.6 27.6,15.6 C34.3,15.6 39.7,21 39.7,27.7 C39.7,34.4 34.3,39.8 27.6,39.8 C20.9,39.8 15.5,34.4 15.5,27.7 C15.5,25.5 16.1,23.5 17.1,21.7" id="Shape" class="stroke-primary" stroke-width="3" stroke-linecap="round" stroke-linejoin="round"></path>
            <circle id="Oval" class="fill-neutral" fill-rule="nonzero" cx="27.6" cy="27.8" r="5.1"></circle>
            <circle id="Oval" class="fill-primary-100" fill-rule="nonzero" cx="28.7" cy="28.9" r="4"></circle>
            <path d="M31.7,24.8 C32.3,25.6 32.7,26.7 32.7,27.8 C32.7,30.6 30.4,32.9 27.6,32.9 C24.8,32.9 22.5,30.6 22.5,27.8 C22.5,25.6 23.9,23.7 25.9,23" id="Shape" class="stroke-primary" stroke-width="3" stroke-linecap="round" stroke-linejoin="round"></path>
        </g>
    </g>
</svg>
